dist/icons/svgs/question-circle-solid.svg

<svg xmlns="http://www.w3.org/2000/svg" width="24" height="24" fill="currentcolor" class="icon-question-circle-solid" viewBox="0 0 24 24">
  <path d="M12 22C8.40625 22 5.125 20.125 3.32812 17C1.53125 13.9141 1.53125 10.125 3.32812 7C5.125 3.91406 8.40625 2 12 2C15.5547 2 18.8359 3.91406 20.6328 7C22.4297 10.125 22.4297 13.9141 20.6328 17C18.8359 20.125 15.5547 22 12 22ZM8.60156 8.48438V8.52344C8.44531 8.99219 8.67969 9.53906 9.1875 9.73438C9.65625 9.89062 10.2031 9.65625 10.3594 9.14844L10.3984 9.10938C10.4375 8.99219 10.5547 8.91406 10.6719 8.91406H12.9375C13.2891 8.91406 13.5625 9.14844 13.5625 9.5C13.5625 9.69531 13.4453 9.89062 13.25 10.0078L11.5312 10.9844C11.2188 11.1406 11.0625 11.4531 11.0625 11.8047V12.3125C11.0625 12.8594 11.4531 13.25 12 13.25C12.5078 13.25 12.8984 12.8594 12.9375 12.3516L14.1875 11.6094C14.9297 11.1797 15.4375 10.3594 15.4375 9.5C15.4375 8.13281 14.3047 7 12.9375 7H10.6719C9.73438 7 8.91406 7.58594 8.60156 8.48438ZM10.75 15.75C10.75 16.4531 11.2969 17 12 17C12.6641 17 13.25 16.4531 13.25 15.75C13.25 15.0859 12.6641 14.5 12 14.5C11.2969 14.5 10.75 15.0859 10.75 15.75Z"/>
</svg>

<svg xmlns="http://www.w3.org/2000/svg" width="24" height="24" fill="currentColor" class="icon-question-circle-solid" viewBox="0 0 24 24">
  <path d="M12 22c-3.594 0-6.875-1.875-8.672-5-1.797-3.086-1.797-6.875 0-10C5.125 3.914 8.406 2 12 2c3.555 0 6.836 1.914 8.633 5 1.797 3.125 1.797 6.914 0 10A9.93 9.93 0 0 1 12 22M8.602 8.484v.04a.976.976 0 0 0 .585 1.21c.47.157 1.016-.078 1.172-.586l.04-.039a.29.29 0 0 1 .273-.195h2.265c.352 0 .626.234.626.586a.61.61 0 0 1-.313.508l-1.719.976c-.312.157-.469.47-.469.82v.508c0 .547.391.938.938.938.508 0 .898-.39.938-.898l1.25-.743c.742-.43 1.25-1.25 1.25-2.109 0-1.367-1.133-2.5-2.5-2.5h-2.266a2.18 2.18 0 0 0-2.07 1.484m2.148 7.266c0 .703.547 1.25 1.25 1.25.664 0 1.25-.547 1.25-1.25 0-.664-.586-1.25-1.25-1.25-.703 0-1.25.586-1.25 1.25"/>
</svg>
